!!!SOCIAL_FUNCTION:	parade songs
!!!PDT:	1922
!!!OTL: No_88_Parade_Song_(f).krn
!!!REG: Southwest
!!!LANG: Non-Tone
!!!LING_GROUP: Uto-Aztecan
**kern	**kern
*staff2	*staff1
=1-	=1-
*clefF4	*clefF4
*k[f#c#]	*k[f#c#]
*M2/4	*M2/4
2r	4e\
.	8d\L
.	8e\J
=2	=2
2r	4d\
.	12A\L
.	12A\
.	12A\J
=3	=3
2r	4d\
.	8d\L
.	8d\J
=4	=4
2r	4d\
.	12A\L
.	12A\
.	12A\J
=5||	=5||
*M3/4	*M3/4
2.r	4d\
.	8d\L
.	8d\J
.	16A\LK
.	8.A\J
=6||	=6||
*M2/4	*M2/4
2r	4.A\
.	8A\
=7||	=7||
*M3/4	*M3/4
2.r	2.A\
=8||	=8||
*M2/4	*M2/4
2r	4d\
.	16A\LL
.	16A\J
.	8d\J
=9||	=9||
*M3/4	*M3/4
2.r	8A\L
.	8F#\J
.	16E\LL
.	16D\J
.	8D\J
.	4D\
=10||	=10||
*M2/4	*M2/4
2r	16A\LK
.	8.A\J
.	8F#\L
.	8A\J
=11||	=11||
*M3/4	*M3/4
2.r	8F#\L
.	8E\J
.	4D\
.	4AA/
=12||	=12||
*M2/4	*M2/4
2r	16D\LK
.	8.D\J
.	8D\L
.	8D\J
=13	=13
2r	4D\
.	4AA/
=14	=14
2r	16D\LK
.	8.D\J
.	8D\L
.	8D\J
=15	=15
2r	8AA/L
.	8AA/J
.	8AA/L
.	8AA/J
=16	=16
2r	4AA/
.	4AA/
==	==
*-	*-
